public/images/hashed/10e964789c5cc7b0248ac1cf34364e1e.svg

<?xml version="1.0" encoding="UTF-8"?>
<svg width="80px" height="80px" viewBox="0 0 80 80" version="1.1" xmlns="http://www.w3.org/2000/svg" xmlns:xlink="http://www.w3.org/1999/xlink">
    <!-- Generator: Sketch 64 (93537) - https://sketch.com -->
    <title>Icon-Architecture/64/Arch_AWS-Elemental-MediaConnect_64</title>
    <desc>Created with Sketch.</desc>
    <defs>
        <linearGradient x1="0%" y1="100%" x2="100%" y2="0%" id="linearGradient-1">
            <stop stop-color="#C8511B" offset="0%"></stop>
            <stop stop-color="#FF9900" offset="100%"></stop>
        </linearGradient>
    </defs>
    <g id="Icon-Architecture/64/Arch_AWS-Elemental-MediaConnect_64" stroke="none" stroke-width="1" fill="none" fill-rule="evenodd">
        <g id="Icon-Architecture-BG/64/Media-Services" fill="url(#linearGradient-1)">
            <rect id="Rectangle" x="0" y="0" width="80" height="80"></rect>
        </g>
        <path d="M60.9999924,33.6181545 L55.9999924,31.1181661 L50.9999924,33.6181545 L50.9999924,40.3821232 L55.9999924,42.8821117 L60.9999924,40.3821232 L60.9999924,33.6181545 Z M45.0000035,23.6182008 L40.0000035,21.1182124 L35.0000035,23.6182008 L35.0000035,30.3821695 L40.0000035,32.882158 L45.0000035,30.3821695 L45.0000035,23.6182008 Z M29.0000145,33.6181545 L24.0000145,31.1181661 L19.0000145,33.6181545 L19.0000145,40.3821232 L24.0000145,42.8821117 L29.0000145,40.3821232 L29.0000145,33.6181545 Z M62.9999841,33.0001574 L62.9999841,41.0001204 C62.9999841,41.3791186 62.7859843,41.725117 62.4469845,41.8941162 L56.4469886,44.8941023 C56.3069887,44.965102 56.1529888,45.0001019 55.999989,45.0001019 C55.8469891,45.0001019 55.6929892,44.965102 55.5529893,44.8941023 L49.5529934,41.8941162 C49.2139936,41.725117 48.9999938,41.3791186 48.9999938,41.0001204 L48.9999938,33.6181545 L45.9999959,32.1181615 L40.4469997,34.8941486 C40.1659999,35.035148 39.8340001,35.035148 39.5530003,34.8941486 L34.0000041,32.1181615 L31.0000159,33.6181545 L31.0000159,41.0001204 C31.0000159,41.3791186 30.7860064,41.725117 30.4470066,41.8941162 L24.4470107,44.8941023 C24.1660109,45.0351017 23.8340112,45.0351017 23.5530114,44.8941023 L17.5530155,41.8941162 C17.2140157,41.725117 17.0000159,41.3791186 17.0000159,41.0001204 L17.0000159,33.0001574 C17.0000159,32.6211592 17.2140157,32.2751608 17.5530155,32.1051616 L23.5530114,29.1051754 C23.8340112,28.9651761 24.1660109,28.9651761 24.4470107,29.1051754 L30.0000159,31.8821626 L33.0000048,30.3821695 L33.0000048,23.0002037 C33.0000048,22.6212055 33.2140047,22.2752071 33.5530045,22.1052078 L39.5530003,19.1052217 C39.8340001,18.9652224 40.1659999,18.9652224 40.4469997,19.1052217 L46.4469955,22.1052078 C46.7859953,22.2752071 46.9999952,22.6212055 46.9999952,23.0002037 L46.9999952,30.3821695 L49.9999931,31.8821626 L55.5529893,29.1051754 C55.8339891,28.9651761 56.1659888,28.9651761 56.4469886,29.1051754 L62.4469845,32.1051616 C62.7859843,32.2751608 62.9999841,32.6211592 62.9999841,33.0001574 L62.9999841,33.0001574 Z M35.5150031,55.1420549 L34.4850038,56.857047 L39.4860004,59.8570331 C39.6450002,59.9520326 39.8230001,60.0000324 40.001,60.0000324 C40.1789999,60.0000324 40.3569998,59.9520326 40.5159996,59.8570331 L45.5149962,56.857047 L44.4850038,55.1420549 L40.9999993,57.2340452 L40.9999993,41.7651168 L44.4850038,43.8571071 L45.5149962,42.1421151 L40.5149996,39.142129 C40.1979999,38.9511299 39.8020001,38.9511299 39.4850038,39.142129 L34.4850038,42.1421151 L35.5150031,43.8571071 L39.0000007,41.7651168 L39.0000007,57.2330452 L35.5150031,55.1420549 Z M24.024011,24.1811982 L28.485008,26.8571858 C28.7950077,27.043185 29.1800075,27.048185 29.4930073,26.8701858 C29.807007,26.6931866 30.0000069,26.3601881 30.0000069,26.0001898 L30.0000069,20.5942148 L40,15.1392401 L49.9999931,20.5942148 L49.9999931,26.0001898 C49.9999931,26.3601881 50.192993,26.6931866 50.5069927,26.8701858 C50.8209925,27.048185 51.2059923,27.043185 51.514992,26.8571858 L55.975989,24.1811982 L61.4499852,27.7841816 L62.5499844,26.1131893 L56.5499886,22.1642076 C56.2289888,21.9542085 55.8159891,21.9452086 55.4849893,22.1422077 L51.9999917,24.234198 L51.9999917,20.0002176 C51.9999917,19.6342193 51.7999919,19.2972208 51.4789921,19.1222217 L40.4789997,13.1222494 C40.1819999,12.9592502 39.8180001,12.9592502 39.5210003,13.1222494 L28.5210079,19.1222217 C28.2000081,19.2972208 28.0000083,19.6342193 28.0000083,20.0002176 L28.0000083,24.234198 L24.5150107,22.1422077 C24.1840109,21.9452086 23.7710112,21.9532085 23.4500156,22.1642076 L17.4500156,26.1131893 L18.5500148,27.7841816 L24.024011,24.1811982 Z M63,52.9290651 C63.0019841,53.2840635 62.8149842,53.614062 62.5109845,53.7950611 L40.5109996,66.8600006 C40.3539998,66.9530002 40.1769999,67 40,67 C39.8230001,67 39.6460002,66.9530002 39.4890004,66.8600006 L17.4890155,53.7940611 C17.1850158,53.613062 16.9980159,53.2830635 17,52.9280651 C17.0020159,52.5730668 17.1920158,52.2460683 17.5000155,52.0680691 L29.5,45.1341012 L30.5,46.8660932 L19.9790138,52.9460651 L40,64.83701 L60.0209862,52.9470651 L49.5,46.8660932 L50.5,45.1341012 L62.4999845,52.0690691 C62.8079842,52.2470683 62.9979841,52.5740668 63,52.9290651 L63,52.9290651 Z" id="AWS-Elemental-MediaConnect_Icon_64_Squid" fill="#FFFFFF"></path>
    </g>
</svg>

<svg xmlns="http://www.w3.org/2000/svg" width="80" height="80"><defs><linearGradient id="a" x1="0%" x2="100%" y1="100%" y2="0%"><stop offset="0%" stop-color="#C8511B"/><stop offset="100%" stop-color="#F90"/></linearGradient></defs><g fill="none" fill-rule="evenodd"><path fill="url(#a)" d="M0 0h80v80H0z"/><path fill="#FFF" d="m61 33.618-5-2.5-5 2.5v6.764l5 2.5 5-2.5v-6.764Zm-16-10-5-2.5-5 2.5v6.764l5 2.5 5-2.5v-6.764Zm-16 10-5-2.5-5 2.5v6.764l5 2.5 5-2.5v-6.764ZM63 33v8a.998.998 0 0 1-.553.894l-6 3a.99.99 0 0 1-.894 0l-6-3A.998.998 0 0 1 49 41v-7.382l-3-1.5-5.553 2.776a.998.998 0 0 1-.894 0L34 32.118l-3 1.5V41a.998.998 0 0 1-.553.894l-6 3a.998.998 0 0 1-.894 0l-6-3A.998.998 0 0 1 17 41v-8c0-.379.214-.725.553-.895l6-3c.281-.14.613-.14.894 0L30 31.882l3-1.5V23c0-.379.214-.725.553-.895l6-3c.281-.14.613-.14.894 0l6 3c.339.17.553.516.553.895v7.382l3 1.5 5.553-2.777c.281-.14.613-.14.894 0l6 3c.339.17.553.516.553.895ZM35.515 55.142l-1.03 1.715 5.001 3a1.004 1.004 0 0 0 1.03 0l4.999-3-1.03-1.715L41 57.234V41.765l3.485 2.092 1.03-1.715-5-3a.997.997 0 0 0-1.03 0l-5 3 1.03 1.715L39 41.765v15.468l-3.485-2.09Zm-11.491-30.96 4.461 2.675A.999.999 0 0 0 30 26v-5.406l10-5.455 10 5.455V26a.998.998 0 0 0 1.515.857l4.461-2.676 5.474 3.603 1.1-1.67-6-3.95a1.005 1.005 0 0 0-1.065-.022L52 24.234V20a1 1 0 0 0-.521-.878l-11-6a1 1 0 0 0-.958 0l-11 6A1 1 0 0 0 28 20v4.234l-3.485-2.092a1.003 1.003 0 0 0-1.065.022l-6 3.95 1.1 1.67 5.474-3.603ZM63 52.928c.002.355-.185.685-.489.866l-22 13.065a1.003 1.003 0 0 1-1.022 0l-22-13.066a1.003 1.003 0 0 1 .011-1.726l12-6.934 1 1.732-10.521 6.08L40 64.837l20.021-11.89-10.521-6.08 1-1.733 12 6.935a1 1 0 0 1 .5.86Z"/></g></svg>
